X:538
T:The Flowers of the Forest
M:C
L:1/8
Q:90
B:O'Neill's 538
N:"Slow with expression Irish Version" "collected by J. O'Neill"
Z:Transcribed by Dave Wooldridge
K:D
A2 FB ABde/2f/2|gfed Bd/2c/2 B/2A/2G/2F/2 \
|EFAB ABd 3e/2f/2g/2|f2 ged d2 z :|f|ag f/2e/2d/2c/2 d2 dB|
|Afed Bd/2c/2  B/2A/2G/2F/2 \
|1 ag f/2e/2d/2c/2 d2 dB|Afed d2 z \
:|2 3EFA AB ABd 3e/2f/2g/2|f2 fed d2 z||
e \
|fgab afed|gfed Bd/2c/2 B/2A/2G/2F/2 \
|fgab afed|B/2g/2f/2e/2 Bc d2 z e|
|fgab afed|gfed Bd/2c/2 B/2A/2G/2F/2 \
|3EFA AB ABd 3e/2f/2g/2|f2 ged d2 z|]
